X:1
T:Title
%%score { ( 1 3 ) | 2 }
L:1/8
Q:1/4=100
M:6/8
K:G
V:1 treble nm="Grand Piano"
V:3 treble 
V:2 bass 
V:1
 [B,B][B,A][B,G] [B,D][B,G][B,B] | d2 d d3 | B2 D G3 | b2 d g3 | [B,B][B,A][B,G] [B,D][B,G][B,B] | %5
w: Maurice~A.~Clifton * * * * *|||||
 d2 d d3 | A3 E2 [^CF] | D6 | DFE DEF | .G3 d3 | .F3 d3 | .g3 d'3 | DFE DEF | .G3 d3 | Add ^cee | %15
w: ||||||||||
 [Fd][Fd][Fd] [DFd][DFd][DFd] | d3 B3 | G3 z3 | E3 c3 | B3 A3 | B3 F3 | z EE GAB | A3 E3 | F3 D3 | %24
w: |||||||||
 d3 B3 | G3 z3 | E3 c3 | .B3 A3 | B3 d3 | %29
w: |||||
 e3 z3[Q:1/4=97][Q:1/4=94][Q:1/4=91][Q:1/4=88][Q:1/4=84][Q:1/4=81][Q:1/4=78] | B3 A3 | G6 |] %32
w: |||
V:2
 [G,,G,][G,,G,][G,,G,] [G,,G,][G,,G,][G,,G,] | [G,B,G]2 [A,CF] [B,DG]3 | [G,D]2 [G,B,] [B,D]3 | %3
 [Gd]2 [GB] [GBd]3 | [G,,G,][G,,G,][G,,G,] [G,,G,][G,,G,][G,,G,] | [G,B,G]2 [A,CF] [B,DG]3 | %6
 [A,DF]3 [A,^C]2[K:bass] [A,,G,] | [D,F,]6 | D,[F,A,C][F,A,C] D,[F,A,C][F,A,C] | G,B,[B,D] G,B,B, | %10
 D,[F,A,][F,A,C] D,[F,A,][F,A,] | G,B,[B,D] G,B,B, | D,[F,A,C][F,A,C] D,[F,A,C][F,A,C] | %13
 G,B,[B,D] G,B,B, | [A,DF][A,DF][A,DF] [A,EG][A,^CG][A,CG] | %15
 [D,D][D,D][D,D] [D,A,C][D,A,C][D,A,C] | [G,B,DG][G,B,D][G,B,D] [G,B,DG][G,B,D][K:bass][G,B,D] | %17
 [G,B,D][G,B,][G,B,] [G,B,D][G,B,D][G,B,D] | [C,G,C][C,G,][C,G,] [A,,E,A,][A,,E,A,][A,,E,A,] | %19
 [D,G,B,][D,G,B,][D,G,B,] [D,A,C][D,A,C][D,A,C] | %20
 [B,,F,B,][B,,F,B,][B,,F,B,] [B,,F,B,][B,,F,B,][B,,F,B,] | %21
 [E,B,E][E,B,][E,B,] [E,B,E][E,B,E][E,B,E] | %22
 [A,,E,A,][A,,E,A,][A,,E,A,] [A,,E,A,][A,,E,A,][A,,E,A,] | %23
 [D,F,A,CD][D,F,A,C][D,F,A,C] [D,F,A,C][D,F,A,][D,F,A,] | %24
 [G,B,DG][G,B,D][G,B,D] [G,B,DG][G,B,D][K:bass][G,B,D] | %25
 [G,B,D][G,B,][G,B,] [G,B,D][G,B,D][G,B,D] | [C,G,C][C,G,][C,G,] [A,,E,A,][A,,E,A,][A,,E,A,] | %27
 [D,G,B,][D,G,B,][D,G,B,] [D,A,C][D,A,CD][D,A,CD] | %28
 [G,B,DG][G,B,D][K:bass][G,B,D] [=F,B,DG][F,B,D][F,B,D] | %29
 [E,CE][E,CE][E,CE] [^D,_B,^C][D,B,C][D,B,C] | [D,G,B,][D,G,B,][D,G,B,] [D,A,C][D,A,C][D,A,C] | %31
 [G,,G,][G,,G,][G,,G,] [G,,G,]3 |] %32
V:3
 x6 | x6 | x6 | x6 | x6 | x6 | x6 | x6 | x6 | z DB z DD | z CA z CC | z Db z DD | x6 | z DB z DD | %14
 x6 | x6 | z GG z GG | z DD GAB | z CC [CE][CE][CE] | [DG][DG][DG] [DF][DF][DF] | %20
 [^DF][DF][DF] DDD | G3 z3 | [^CE][CE][CE] CCC | z DD z CC | z GG z GG | z DD GAB | %26
 z CC [CE][CE][CE] | [DG][DG][DG] [DF]FF | z GG z GG | GGG GGA | [DG][DG][DG] [DF][DF][DF] | %31
 [B,D][B,D][CE] [B,D]3 |] %32

